X:1
T:Bricklayer's -- Hornpipe
Z:Bob Puckette <bpuckette:msn.com> 2003-3-10
R:hornpipe
B:Cole's 1000 Fiddle Tunes
M:2/4
L:1/16
K:F
uc2|c=BcA FAcf|fege cdcB|cBdB BAcA|AGBG FEDC|
c=BcA FAcf|fege cegb|baag gfeg|f2a2f2:|
|:uG2|G^FGE CEGB|BAcA FAcf|dfAf dfAf|dfba gfed|
c=BcA FAcf|fege cegb|baag gfeg|f2a2f2:|
